X:1
T:O Lord our Governor
T:Capel Bond (of Coventry)
T:Text: Based on BCP Ps. 8, vv. 1, 4, 6-9.
T:Edition released into the public domain, November 2009. As such, it may be freely copied and performed.
T:O Lord our Governor
T:Anthem taken out of the 8th Psalm
C:Capel Bond
C:(of Coventry)
Z:Text: Based on BCP Ps. 8, vv. 1, 4, 6-9.
%%score [ 1 2 3 4 ]
L:1/8
M:4/4
K:Cmin
V:1 treble nm="S" snm="S"
V:2 treble nm="A" snm="A"
V:3 treble-8 transpose=-12 nm="T" snm="T"
V:4 bass nm="B" snm="B"
V:1
 z8 | z8 | z8 | z8 | z8 | z8 | z8 | z8 | z8 | z8 | z8 | z8 | z8 | z8 | z8 | z8 | z8 | z8 | %18
w: ||||||||||||||||||
 z4 z2"^Chorus" G2 | c6 =B2 | c>c ce d/d/d dd | e2 d2 c3 c | =B4 z2 B2 | c4- c3 c | %24
w: O|Lord our|go- vern- or, how ex- cell- ent is thy|name in all the|world, O|Lord _ our|
 c>c cc =B/B/B Bc | (df)(ed) (e2 d>)c | c2 =e2 f/f/_e dc | =B2 c2 c2 B2 | c8 || %29
w: go- vern- or, how ex- cell- ent is thy|name _ in _ all _ the|world, how ex- cell- ent is thy|name in all the|world.|
"^Boy Solo" z2 G2 z2 AG | (F=E) z E EEFG | AA z2 AAAG | c2 z2 z2 c=B | d/d/d d2 !fermata!z4 || %34
w: Lord, what is|man, _ that thou art mind- ful|of him? and the son of|man, that thou|vi- sit- test him?|
[K:C][M:3/2]"^BriskVerse two Voices [Soprano and Bass]" d4 | e4 e2 d2 c2 B2 | c4 G2 F2 E2 D2 | %37
w: Thou|mak’st him to have do-|mi- nion, to have do-|
 E4 D4 B2 B2 | c6 d2 e4 | (e4 d4) d2 d2 | (e3 f g2) f2 e4 | d8 z4 | z12 | z12 | z12 | z12 | z12 | %47
w: mi- nion of the|works of thy|hands, _ of the|works _ _ of thy|hands.||||||
 z12 | z12 | z12 | z12 | z12 | z12 | z12 | z12 | z12 | z12 | z12 | z8"^Verse" d4 | %59
w: |||||||||||The|
 (c4 B2) B2 (c2 d2) | e8 z4 | z12 | z8 e4 | e2 e2 e4 f4 | e4 (e2 d2) c2 B2 | (c2 d2) B6 c2 | %66
w: fowls _ of the _|air,||and|what- so- e- ver|walk- eth _ through the|paths _ of the|
 c8 z4 | e2 e2 e4 f4 | e4 (e2 d2) c2 B2 | (c2 d2) B6 c2 | c8 z4 || %71
w: sea,|what- so- e- ver|walk- eth _ through the|paths _ of the|sea.|
[K:Cmin][M:4/4]"^[Slow] Chorus"[Q:1/4=60] z2 e2 d3 d | e>e ed c/d/e dc | =B3 B c3 c | d4 z2 G2 | %75
w: O Lord our|go- ver- nor, how ex- cell- ent is thy|name in all the|world, O|
 B3 B A>A A2 | z2 z c =B/B/B Bc | (df)(ed) (e2 d>)c | c8- | c3 c =B/B/B Bc | d4 c4 | c4 =B4 | c8 |] %83
w: Lord our go- vern- or,|how ex- cell- ent is thy|name _ in _ all _ the|world,|_ how ex- cell- ent is thy|name in|all the|world!|
V:2
"^SlowVerse Three Voices[Alto, Tenor and Bass]" z8 | z2 E2 D3 D | E>E E2 z2 E2 | D/D/D D=E F2 z F | %4
w: |O Lord our|go- vern- or, how|ex- cell- ent is thy name, how|
 D/D/D EF G2 z A | (G2 TF>)E E2 z2 | G2 GG F2 z F | GG z G G2 ^F2 | G2 G2 (F2 =E)E | %9
w: ex- cell- ent is thy name in|all _ the world:|thou that hast set thy|glo- ry a- bove the|heav’ns. O Lord _ our|
 F>F FF (E2 D)D | E>E E2 z2 z F | G/A/B AG F2 z F | G/A/B AG (AF)(GA) | (G2 TF>)E E2 z2 | %14
w: go- vern- or, O Lord _ our|gov- ern- or, how|ex- cell- ent is thy name, how|ex- cell- ent is thy name _ in _|all _ the world:|
 E2 EE ((DC)) z C | F3 E DD z D | (G>A GF E/D/E FG | A/B/A/G/ F/E/D/C/ =B,A)GF | (E2 TD>)C C2 z2 | %19
w: thou that hast set, _ hast|set thy glo- ry, thy|glo- * * * * * * * *|* * * * * * * * * * ry a-|bove _ the heav’ns|
 z2 G2 G3 G | G>G GG G/G/G GG | G2 G2 (G2 F)F | G2 D2 G4- | G4- G3 G | F>F FG F/F/F FA | %25
w: O Lord our|go- vern- or, how ex- cell- ent is thy|name in all _ the|world, O Lord|_ _ our|go- vern- or, how ex- cell- ent is thy|
 G2 G2 G3 G | G2 G2 F/F/G AG | F2 G2 G3 G | G8 || z8 | z8 | z8 | z8 | z8 ||[K:C][M:3/2] z4 | z12 | %36
w: name in all the|world, how ex- cell- ent is thy|name in all the|world.||||||||
 z12 | z12 | z12 | z12 | z12 | z12 | z12 | z12 | z12 | z12 | z12 | z12 | z12 | z12 | z12 | z12 | %52
w: ||||||||||||||||
 z12 | z8"^Verse [Alto, Tenor and Bass]" G4 | G8 G4 | G4 G4 z4 | E4 z2 D2 E4 | (D4 C2) C2 (D2 E2) | %58
w: |All|sheep and|ox- en:|yea, and the|beasts _ of the _|
 F8 F4 | (E4 D2) D2 (E2 F2) | G8 G2 G2 | A2 A2 A4 A4 | G8 G4 | G2 G2 G4 A4 | G4 G4 G2 F2 | %65
w: field. The|fowls _ of the _|air, and the|fish- es of the|sea, and|what- so- e- ver|walk- eth though the|
 (E2 D2) D6 D2 | E8 z4 | G2 G2 G4 A4 | G4 G4 G2 F2 | (G2 A2) D6 E2 | E8 z4 || %71
w: paths _ of the|sea,|what- so- e- ver|walk- eth through the|paths _ of the|sea.|
[K:Cmin][M:4/4] z2 G2 G3 G | G>G GD E/F/G FE | DD G4 F2 | G4 z2 =E2 | G3 G F>F F2 | %76
w: O Lord our|go- vern- or, how ex- cell- ent is thy|name in all the|world, O|Lord our go- vern- or,|
 z2 z G F/F/F FA | G2 G2 G3 G | G2 =E2 F2 G2 | A>A AG F/F/F FE | D4 (E2 F2) | G6 G2 | G8 |] %83
w: how ex- cell- ent is thy|name in all the|world, O Lord our|go- vern- or, how ex- cell- ent is thy|name in _|all the|world!|
V:3
 z4 z2 G2 | c6 =B2 | c>c c2 z2 c2 | c/c/c BB A2 z A | F/F/F BA GB (e2- | e2 d>)e e2 z2 | %6
w: O|Lord our|go- vern- or, how|ex- cell- ent is thy name, how|ex- cell- ent is thy name in all|_ _ the world:|
 e2 ee d2 z d | ee z (e/c/) (B2 =A>)G | G2 z2 z2 c2 | (B2 =A>)A B>B B_A | G>G G2 z2 z B | %11
w: thou that hast set thy|glo- ry a- * bove _ the|heav’ns. O|Lord _ our go- vern- or, our|go- vern- or, how|
 e/e/e de d2 z d | e/f/g fe (fd) e2 | (e2 d>)e e2 z2 | c2 cc ((B=A)) z A | d3 c =BB z d | %16
w: ex- cell- ent is thy name, how|ex- cell- ent is thy name _ in|all _ the world:|thou that hast set, _ hast|set thy glo- ry, thy|
 (e>f ed c)c z B | (A2 f2- f=B)cd | (c2 T=B>)c c2 z2 | z2 e2 d3 d | e>e ec =B/B/B BB | %21
w: glo- * * * * ry, thy|glo- * * * ry a-|bove _ the heav’ns.|O Lord our|go- vern- or, how ex- cell- ent is thy|
 c2 d2 e2 c2 | d4 z4 | z2 G2 B3 B | A>A Ac d/d/d de | d2 c2 (c2 =B>)c | c2 _d2 c/c/B Ac | %27
w: name in all the|world,|O Lord our|go- vern- or, how ex- cell- ent is thy|name in all _ the|world, how ex- cell- ent in thy|
 d2 e2 d3 d | e8 || z8 | z8 | z8 | z8 | z8 ||[K:C][M:3/2] z4 | z12 | z12 | z12 | z12 | z12 | z12 | %41
w: name in all the|world.|||||||||||||
 z8"^One Tenor Voice" c4 | (B4 A2) B2 c4 | d4 d4 d4 | (c4 B2) c2 d4 | e4 e4 z4 | e4 e2 e2 f4 | %47
w: And|thou _ hast put|all things, and|thou _ hast put|all things,|all things in sub-|
 (e6 d2) c4 | d4 c4 B4 | c4 e2 e2 d4 | c4 c4 B2 A2 | (G4 f4) e4 | d4 c4 B4 | c8 e4 | (d6 c2) d4 | %55
w: ject- * ion|un- der his|feet, thou hast put|all things in sub-|ject- * ion|un- der his|feet. All|sheep _ and|
 e4 e4 z4 | G4 z2 G2 G4 | A6 A2 G4 | F8 z4 | z12 | z8 e2 e2 | f2 e2 f4 f4 | e8 c4 | c2 c2 c4 c4 | %64
w: ox- en:|yea, and the|beasts of the|field,||and the|fish- es of the|sea, and|what- so- e- ver|
 c4 c4 c2 d2 | c4 G6 G2 | G8 z4 | c2 c2 c4 c4 | c4 c4 c2 d2 | c4 G6 G2 | G8 z4 || %71
w: walk- eth through the|paths of the|sea,|what- so- e- ver|walk- eth through the|paths of the|sea.|
[K:Cmin][M:4/4] z2 c2 (c2 =B)c | c>c cG G/G/G AA | G3 d (ce)(dc) | =B2 G2 c4- | c3 c c>c c2 | %76
w: O Lord _ our|go- vern- or, how ex- cell- ent is thy|name in all _ the _|world, O Lord|_ our go- vern- or,|
 z2 z c d/d/d de | d2 c2 (c2 =B>)c | c2 _d2 c2 B2 | f>f fe d/d/d dG | =B4 c4 | d6 d2 | c8 |] %83
w: how ex- cell- ent is thy|name in all _ the|world, O Lord our|go- vern- or, how ex- cell- ent is thy|name in|all the|world!|
V:4
 z8 | z2 C,2 G,3 G, | C>C C2 z2 C,2 | G,/G,/G, G,G, F,2 z F, | B,,/B,,/B,, G,F, E,2 z A, | %5
w: |O Lord our|go- vern- or, how|ex- cell- ent is thy name, how|ex- cell- ent is thy name in|
 B,2 B,,2 E,2 z2 | E,2 E,E, B,2 z B, | EE z C D2 D,2 | G,2 G,2 C3 C, | F,>F, F,F, B,2 B,,2 | %10
w: all the world:|thou that hast set thy|glo- ry a- bove the|heav’ns. O Lord our|go- vern- or, O Lord, our|
 E,>E, E,2 z2 z D, | E,/F,/G, F,E, B,4- | B,6 E,2 | B,2 B,,2 E,2 z2 | C,2 C,C, F,2 z F, | %15
w: go- vern- or, how|ex- cell- ent is thy name|_ in|all the world:|thou that hast set, hast|
 D,3 (E,/F,/) G,G, z G, | (E,3 F,/G,/ A,)A, z G, | (F,/G,/F,/E,/ D,/C,/=B,,/=A,,/ G,,F,)E,F, | %18
w: set thy _ glo- ry, thy|glo- * * * ry, thy|glo- * * * * * * * * * ry a-|
 G,3 G, C,2 z2 | z2 C,2"^54" G,3"^§" G, | C>C CC,"^§" G,/G,/G, G,G, | C2"^6" B,2"^7" A,3"^6" A, | %22
w: bove the heav’ns.|O Lord our|go- vern- or, how ex- cell- ent is thy|name in all the|
 G,4 z2 G,2 |"^6" =E,4-"^65" E,3 E, | F,>F, F,"^6"E,"^§6" D,/D,/D, D,"^6"C, | %25
w: world. O|Lord _ our|go- vern- or, how ex- cell- ent is thy|
"^6" =B,,2 C,2"^64" G,3"^5§" G, | C2"^§6b3" B,2"^6" A,/A,/"^b6"G,"^6" F,"^6"E, | %27
w: name in all the|world, how ex- cell- ent is thy|
"^§6" D,2 C,2"^54" G,3"^§" G, | C,8 ||"^§" C,8- | C,8 | F,,8 |"^6" A,,8 |"^§" G,,4 !fermata!z4 || %34
w: name in all the|world.||||||
[K:C][M:3/2] z4 | z8 D4 | E4 E2 D2 C2 B,2 | C4 G,4 G,2 F,2 | E,6 D,2 C,4 | G,8 B,2 B,2 | %40
w: |Thou|mak’st him to have do-|mi- nion of the|works of thy|hands, of the|
 (C3 D E2) D2 C4 | G,8 C,4 | F,6 F,2 E,4 | D,4 F,4 D,4 | G,6 A,2 B,4 | C4 C4 z4 | C4 C2 C2 F,4 | %47
w: works _ _ of thy|hands, and|thou hast put|all things, and|thou hast put|all things,|all things in sub-|
 C8 E,4 | F,4 G,4 G,4 | C,4 C2 C2 B,4 | A,4 A,4 G,2 F,2 | (E,4 D,4) C,4 | F,4 G,4 G,4 | C,8 C4 | %54
w: ject- ion|un- der his|feet, thou hast put|all things in sub-|ject- * ion|un- der his|feet. All|
 (B,6 A,2) B,4 | C4 C4 z4 | C,4 z2 B,,2 C,4 | F,6 F,2 E,4 | D,8 D,4 | G,6 F,2 (E,2 D,2) | %60
w: sheep _ and|ox- en:|yea, and the|beasts of the|field, The|fowls of the _|
 C,8 C2 C2 | F,2 G,2 A,4 B,4 | C8 C4 | C2 C2 C4 F,4 | C4 C4"^6" E,2"^6" D,2 | %65
w: air, and the|fish- es of the|sea, and|what- so- e- ver|walk- eth through the|
"^6" (E,2 F,2) G,6 G,2 | %66
w: paths _ of the|
"^Emendations:Original clefs treble, alto, tenor, bassSlurs, spelling, punctuation and note beamings modernised.The following appoggiature are given as small notes in the source:Bar 9, beat 3: alto FBar 10, beat 1: tenor BbBar 10, beat 3: alto EbBar 31, beat 1: soprano FBar 40, beat 1: soprano EBar 43, beat 1: tenor BBar 45, beat 1: tenor CBar 58, beat 1: alto DBar 60, beat 1: soprano CBar 60, beat 1: alto E" C,8 z4 | %67
w: sea,|
 C2 C2 C4 F,4 | C4 (C,2 D,2)"^6" E,2 D,2 |"^6" (E,2 F,2) G,6 G,2 | C,8 z4 || %71
w: what- so- e- ver|walk- eth _ through the|paths _ of the|sea.|
[K:Cmin][M:4/4] z2 C,2"^4" G,3"^§" G, | C>C C"^6"=B, C/C/C"^6" F,"^75"F, | %73
w: O Lord our|go- vern- or, how ex- cell- ent is thy|
"^§" G,3 G,"^7" A,3"^6" A, | G,4 z2"^§64" G,2 |"^65" =E,3 E, F,>F, F,2 | %76
w: name in all the|world, O|Lord our go- vern- or,|
 z2 z"^6" E,"^§6" D,/D,/D, D,"^6"C, |"^6" =B,,2 C,2"^64" G,3"^5§" G, | %78
w: how ex- cell- ent is thy|name in all the|
 C2"^§6b2" B,2"^6" A,2"^43" G,2 | F,>F, F,"^6"E,"^§6" D,/D,/D, D,C, |"^§" G,4 C,4 | %81
w: world, O Lord our|go- vern- or, how ex- cell- ent is thy|name in|
"^54" G,6"^§" G,2 | C,8 |] %83
w: all the|world!|

